icons/svg/weight-kilogram.svg

﻿<?xml version="1.0" encoding="utf-8"?>
<!DOCTYPE svg PUBLIC "-//W3C//DTD SVG 1.1//EN" "http://www.w3.org/Graphics/SVG/1.1/DTD/svg11.dtd">
<svg xmlns="http://www.w3.org/2000/svg" xmlns:xlink="http://www.w3.org/1999/xlink" version="1.1" baseProfile="full" width="24" height="24" viewBox="0 0 24.00 24.00" enable-background="new 0 0 24.00 24.00" xml:space="preserve">
	<path fill="#000000" fill-opacity="1" stroke-width="0.2" stroke-linejoin="round" d="M 12,3C 14.2091,3 16,4.79086 16,6.99999C 16,7.72857 15.8052,8.41165 15.4649,9L 18,9C 18.9523,9 19.7491,9.66555 19.9507,10.5569C 21.9645,18.5682 22,18.78 22,19C 22,20.1046 21.1046,21 20,21L 4,21C 2.89543,21 2,20.1046 2,19C 2,18.78 2.03554,18.5682 4.04926,10.5569C 4.25088,9.66555 5.04771,9 6,9L 8.53513,9C 8.19479,8.41165 8,7.72857 8,6.99999C 8,4.79086 9.79086,3 12,3 Z M 12,5.00001C 10.8954,5.00001 9.99999,5.89544 9.99999,7.00001C 9.99999,8.10458 10.8954,9.00001 12,9.00001C 13.1046,9.00001 14,8.10458 14,7.00001C 14,5.89544 13.1046,5.00001 12,5.00001 Z M 9.03733,15.44L 10.396,18L 12.112,18L 10.0707,14.6573L 11.9507,11.9413L 10.2,11.9413L 8.86667,14.3307L 8.388,14.3307L 8.388,11.9413L 6.97467,11.9413L 6.97467,18L 8.388,18L 8.388,15.44L 9.03733,15.44 Z M 17.3133,17.1627L 17.3133,14.928L 14.9467,14.928L 14.9467,16.0373L 15.9013,16.0373L 15.9013,16.7947L 15.5513,16.9267L 14.9427,16.976C 14.5871,16.976 14.3107,16.8496 14.1133,16.5967C 13.916,16.3438 13.8173,16.0098 13.8173,15.5947L 13.8173,14.3387C 13.8173,13.9342 13.9173,13.6042 14.1173,13.3487C 14.3173,13.0931 14.5813,12.9653 14.9093,12.9653C 15.2373,12.9653 15.4811,13.0458 15.6407,13.2067C 15.8002,13.3676 15.9036,13.6071 15.9507,13.9253L 17.272,13.9253L 17.28,13.9C 17.2276,13.268 17.0069,12.7693 16.618,12.404C 16.2291,12.0387 15.6444,11.856 14.864,11.856C 14.144,11.856 13.5556,12.0876 13.0987,12.5507C 12.6418,13.0138 12.4133,13.6098 12.4133,14.3387L 12.4133,15.6027C 12.4133,16.3378 12.6473,16.9353 13.1153,17.3953C 13.5833,17.8553 14.1924,18.0853 14.9427,18.0853C 15.5347,18.0853 16.0264,17.9924 16.418,17.8067C 16.8096,17.6209 17.108,17.4062 17.3133,17.1627 Z "/>
</svg>

<svg xmlns="http://www.w3.org/2000/svg" version="1.1" baseProfile="full" width="24" height="24" viewBox="0 0 24.00 24.00" xml:space="preserve"><path fill="#000" fill-opacity="1" stroke-width=".2" stroke-linejoin="round" d="M12 3c2.21 0 4 1.79 4 4 0 .73-.195 1.412-.535 2H18c.952 0 1.75.666 1.95 1.557C21.966 18.567 22 18.78 22 19c0 1.105-.895 2-2 2H4c-1.105 0-2-.895-2-2 0-.22.036-.432 2.05-8.443C4.25 9.667 5.047 9 6 9h2.535C8.195 8.412 8 7.73 8 7c0-2.21 1.79-4 4-4zm0 2c-1.105 0-2 .895-2 2s.895 2 2 2 2-.895 2-2-.895-2-2-2zM9.037 15.44l1.36 2.56h1.715l-2.04-3.343 1.88-2.716H10.2l-1.333 2.39h-.48v-2.39H6.976V18h1.413v-2.56h.65zm8.276 1.723v-2.235h-2.366v1.11h.954v.757l-.35.132-.607.05c-.356 0-.632-.127-.83-.38-.197-.253-.296-.587-.296-1.002V14.34c0-.406.1-.736.3-.99.2-.257.464-.385.792-.385.327 0 .57.08.73.242.16.16.264.4.31.718h1.322l.008-.025c-.052-.632-.273-1.13-.662-1.496-.39-.365-.974-.548-1.754-.548-.72 0-1.308.232-1.765.695-.458.464-.687 1.06-.687 1.79v1.263c0 .735.234 1.332.702 1.792.468.46 1.077.69 1.828.69.592 0 1.083-.093 1.475-.278.392-.186.69-.4.895-.644z"/></svg>
